icon-themes/breeze_svg/cmd/sc_cleararrowdependents.svg

<svg viewBox="0 0 16 16" xmlns="http://www.w3.org/2000/svg"><path d="m10 2v1h.894531l1.001953-1zm3.3125 0-11.3144531 11.294922.7148437.705078 11.2851564-11.3027344zm.6875 2.1113281-1 1.0019531v.8867188h-.884766l-1 1h2.884766zm-12 1.8886719v4h1.8828125l1.0019531-1h-1.8847656v-2h3v.8867188l1-.9980469v-.8886719zm8 3v1h3v3h-3v1h4v-5z" fill="#4d4d4d"/><path d="m6 3 1.15625 1.15625-1.84375 1.84375h.6875.6875l1.15625-1.15625.6015625.6015625.5546875-.5527344v-1.8925781zm3 7-1.15625 1.15625-.4394531-.439453-.6875.6875.4394531.439453-1.15625 1.15625h3z" fill="#1d99f3"/></svg>

<svg viewBox="0 0 16 16" xmlns="http://www.w3.org/2000/svg">
  <path
     style="fill:#4d4d4d"
     d="M 10 2 L 10 3 L 10.894531 3 L 11.896484 2 L 10 2 z M 13.3125 2 L 1.9980469 13.294922 L 2.7128906 14 L 13.998047 2.6972656 L 13.3125 2 z M 14 4.1113281 L 13 5.1132812 L 13 6 L 12.115234 6 L 11.115234 7 L 14 7 L 14 4.1113281 z M 2 6 L 2 10 L 3.8828125 10 L 4.8847656 9 L 3 9 L 3 7 L 6 7 L 6 7.8867188 L 7 6.8886719 L 7 6 L 2 6 z M 10 9 L 10 10 L 13 10 L 13 13 L 10 13 L 10 14 L 14 14 L 14 9 L 10 9 z "
     />
  <path
     style="fill:#1d99f3"
     d="M 6 3 L 7.15625 4.15625 L 5.3125 6 L 6 6 L 6.6875 6 L 7.84375 4.84375 L 8.4453125 5.4453125 L 9 4.8925781 L 9 3 L 6 3 z M 9 10 L 7.84375 11.15625 L 7.4042969 10.716797 L 6.7167969 11.404297 L 7.15625 11.84375 L 6 13 L 9 13 L 9 10 z "
     />
</svg>
